!!!OTL: Jiaolaoxiang nishiting
!!!ARE: Asia, China,ÿLiaoning Chifeng
!! III, 220, 1)
!!!SCT: C1731
!!!YEM: Copyright 1995, estate of Helmut Schaffrath.
**kern
*ICvox
*Ivox
!! Mixed meters:  2/4; 3/4
*M3/4
*k[b-]
*F:
{4cc
4ff
=1
8dd
8ff
4cc
=2
4cc
4ff
=3
8dd
8ff
4b-
=4
4cc
4cc
=5
8f
8r
8dd
8cc
=6
8b-
8cc
4b-
4r}
=7
*M2/4
{8cc
8bn
4cc
=8
8cc
8cc
8g
8a
=9
8cc
8b-
8cc
8dd
=10
8.a
16cc
8a
8g
=11
8f
8f
8f
8g
=12
4.a
8f
=13
4g
8r
8cc}
=14
{8a
8g
8f
8g
=15
4f
4r}
==
!!!AGN: Xiaodiao, Jiujinshan diao
!!!AMT: irregular
!!!AIN: vox
!!!EED: Helmut Schaffrath
!!!EEV: 1.0
*-
